icons/modern/sake.svg

<svg width="32" height="32" viewBox="0 0 32 32" fill="none" xmlns="http://www.w3.org/2000/svg">
<path d="M27.9267 10.62L26.2167 8.65C25.6667 8.02 25.7467 7.05 26.3967 6.52C27.6167 5.55 28.5067 4.18 28.8767 2.61C28.9567 2.3 28.7167 2 28.3967 2H15.5967C15.2767 2 15.0367 2.3 15.1067 2.61C15.4767 4.18 16.3667 5.55 17.5867 6.52C18.2467 7.04 18.3167 8.01 17.7667 8.65L16.0567 10.62C14.7267 12.15 13.9867 14.12 13.9867 16.15V29.06C13.9867 29.58 14.4067 30 14.9267 30H21.9967H29.0567C29.5767 30 29.9967 29.58 29.9967 29.06V16.15C29.9967 14.12 29.2667 12.15 27.9267 10.62Z" fill="url(#paint0_linear_18_28772)"/>
<path d="M27.9267 10.62L26.2167 8.65C25.6667 8.02 25.7467 7.05 26.3967 6.52C27.6167 5.55 28.5067 4.18 28.8767 2.61C28.9567 2.3 28.7167 2 28.3967 2H15.5967C15.2767 2 15.0367 2.3 15.1067 2.61C15.4767 4.18 16.3667 5.55 17.5867 6.52C18.2467 7.04 18.3167 8.01 17.7667 8.65L16.0567 10.62C14.7267 12.15 13.9867 14.12 13.9867 16.15V29.06C13.9867 29.58 14.4067 30 14.9267 30H21.9967H29.0567C29.5767 30 29.9967 29.58 29.9967 29.06V16.15C29.9967 14.12 29.2667 12.15 27.9267 10.62Z" fill="url(#paint1_linear_18_28772)"/>
<path d="M27.9267 10.62L26.2167 8.65C25.6667 8.02 25.7467 7.05 26.3967 6.52C27.6167 5.55 28.5067 4.18 28.8767 2.61C28.9567 2.3 28.7167 2 28.3967 2H15.5967C15.2767 2 15.0367 2.3 15.1067 2.61C15.4767 4.18 16.3667 5.55 17.5867 6.52C18.2467 7.04 18.3167 8.01 17.7667 8.65L16.0567 10.62C14.7267 12.15 13.9867 14.12 13.9867 16.15V29.06C13.9867 29.58 14.4067 30 14.9267 30H21.9967H29.0567C29.5767 30 29.9967 29.58 29.9967 29.06V16.15C29.9967 14.12 29.2667 12.15 27.9267 10.62Z" fill="url(#paint2_linear_18_28772)"/>
<path d="M27.9267 10.62L26.2167 8.65002C25.9451 8.33896 25.8272 7.945 25.8556 7.56205C25.8847 7.16941 26.0676 6.78833 26.3967 6.52002H17.5867C17.923 6.78494 18.1061 7.16667 18.1321 7.56205C18.1571 7.94274 18.0365 8.33608 17.7667 8.65002L16.0567 10.62C14.7267 12.15 13.9867 14.12 13.9867 16.15H29.9967C29.9967 14.12 29.2667 12.15 27.9267 10.62Z" fill="url(#paint3_linear_18_28772)"/>
<path d="M27.9267 10.62L26.2167 8.65002C25.9451 8.33896 25.8272 7.945 25.8556 7.56205C25.8847 7.16941 26.0676 6.78833 26.3967 6.52002H17.5867C17.923 6.78494 18.1061 7.16667 18.1321 7.56205C18.1571 7.94274 18.0365 8.33608 17.7667 8.65002L16.0567 10.62C14.7267 12.15 13.9867 14.12 13.9867 16.15H29.9967C29.9967 14.12 29.2667 12.15 27.9267 10.62Z" fill="url(#paint4_linear_18_28772)"/>
<path d="M27.9267 10.62L26.2167 8.65002C25.9451 8.33896 25.8272 7.945 25.8556 7.56205C25.8847 7.16941 26.0676 6.78833 26.3967 6.52002H17.5867C17.923 6.78494 18.1061 7.16667 18.1321 7.56205C18.1571 7.94274 18.0365 8.33608 17.7667 8.65002L16.0567 10.62C14.7267 12.15 13.9867 14.12 13.9867 16.15H29.9967C29.9967 14.12 29.2667 12.15 27.9267 10.62Z" fill="url(#paint5_radial_18_28772)"/>
<path d="M27.9267 10.62L26.2167 8.65002C25.9451 8.33896 25.8272 7.945 25.8556 7.56205C25.8847 7.16941 26.0676 6.78833 26.3967 6.52002H17.5867C17.923 6.78494 18.1061 7.16667 18.1321 7.56205C18.1571 7.94274 18.0365 8.33608 17.7667 8.65002L16.0567 10.62C14.7267 12.15 13.9867 14.12 13.9867 16.15H29.9967C29.9967 14.12 29.2667 12.15 27.9267 10.62Z" fill="url(#paint6_radial_18_28772)"/>
<path d="M27.9267 10.62L26.2167 8.65002C25.9451 8.33896 25.8272 7.945 25.8556 7.56205C25.8847 7.16941 26.0676 6.78833 26.3967 6.52002H17.5867C17.923 6.78494 18.1061 7.16667 18.1321 7.56205C18.1571 7.94274 18.0365 8.33608 17.7667 8.65002L16.0567 10.62C14.7267 12.15 13.9867 14.12 13.9867 16.15H29.9967C29.9967 14.12 29.2667 12.15 27.9267 10.62Z" fill="url(#paint7_radial_18_28772)"/>
<path d="M25.8556 7.56203C25.8847 7.16939 26.0676 6.78831 26.3967 6.52C27.6167 5.55 28.5067 4.18 28.8767 2.61C28.9567 2.3 28.7167 2 28.3967 2H15.5967C15.2767 2 15.0367 2.3 15.1067 2.61C15.4767 4.18 16.3667 5.55 17.5867 6.52C17.923 6.78492 18.1061 7.16665 18.1321 7.56203H25.8556Z" fill="url(#paint8_linear_18_28772)"/>
<path d="M25.8556 7.56203C25.8847 7.16939 26.0676 6.78831 26.3967 6.52C27.6167 5.55 28.5067 4.18 28.8767 2.61C28.9567 2.3 28.7167 2 28.3967 2H15.5967C15.2767 2 15.0367 2.3 15.1067 2.61C15.4767 4.18 16.3667 5.55 17.5867 6.52C17.923 6.78492 18.1061 7.16665 18.1321 7.56203H25.8556Z" fill="url(#paint9_radial_18_28772)"/>
<path d="M25.8556 7.56203C25.8847 7.16939 26.0676 6.78831 26.3967 6.52C27.6167 5.55 28.5067 4.18 28.8767 2.61C28.9567 2.3 28.7167 2 28.3967 2H15.5967C15.2767 2 15.0367 2.3 15.1067 2.61C15.4767 4.18 16.3667 5.55 17.5867 6.52C17.923 6.78492 18.1061 7.16665 18.1321 7.56203H25.8556Z" fill="url(#paint10_radial_18_28772)"/>
<g filter="url(#filter0_f_18_28772)">
<path d="M15.0724 15.4375C15.0245 15.7739 15 16.1146 15 16.4573V27.7409C15 28.1954 15.3722 28.5625 15.833 28.5625H22.0982H28.3545C28.8153 28.5625 29.1875 28.1954 29.1875 27.7409V16.4573C29.1875 16.1146 29.1634 15.7739 29.1159 15.4375H15.0724Z" fill="url(#paint11_linear_18_28772)"/>
</g>
<path d="M28.3967 4H15.5967C15.9467 4.75 16.4267 5.42 17.0067 6H26.9867C27.5667 5.42 28.0467 4.75 28.3967 4Z" fill="url(#paint12_linear_18_28772)"/>
<path d="M2.00754 21.3583L2.00754 28.7188C2.00754 29.5625 2.1875 30 2.89063 30H16.0781C16.625 30 17.0156 29.625 17.0156 28.7188V21.3583C17.0156 20.9375 16.7656 20.4688 16.1094 20.4688L2.83843 20.4688C2.33316 20.4688 2.00754 20.8281 2.00754 21.3583Z" fill="url(#paint13_linear_18_28772)"/>
<path d="M2.00754 21.3583L2.00754 28.7188C2.00754 29.5625 2.1875 30 2.89063 30H16.0781C16.625 30 17.0156 29.625 17.0156 28.7188V21.3583C17.0156 20.9375 16.7656 20.4688 16.1094 20.4688L2.83843 20.4688C2.33316 20.4688 2.00754 20.8281 2.00754 21.3583Z" fill="url(#paint14_linear_18_28772)"/>
<path d="M2.00754 21.3583L2.00754 28.7188C2.00754 29.5625 2.1875 30 2.89063 30H16.0781C16.625 30 17.0156 29.625 17.0156 28.7188V21.3583C17.0156 20.9375 16.7656 20.4688 16.1094 20.4688L2.83843 20.4688C2.33316 20.4688 2.00754 20.8281 2.00754 21.3583Z" fill="url(#paint15_linear_18_28772)"/>
<path d="M2.00754 21.3583L2.00754 28.7188C2.00754 29.5625 2.1875 30 2.89063 30H16.0781C16.625 30 17.0156 29.625 17.0156 28.7188V21.3583C17.0156 20.9375 16.7656 20.4688 16.1094 20.4688L2.83843 20.4688C2.33316 20.4688 2.00754 20.8281 2.00754 21.3583Z" fill="url(#paint16_radial_18_28772)"/>
<rect x="2.00754" y="22.3828" width="15.0081" height="1.98438" fill="url(#paint17_linear_18_28772)"/>
<g filter="url(#filter1_f_18_28772)">
<path d="M18.8138 7.21875H21.9219V8.09375H18.8138L18.375 7.65625L18.8138 7.21875Z" fill="url(#paint18_linear_18_28772)"/>
</g>
<defs>
<filter id="filter0_f_18_28772" x="13.5" y="13.9375" width="17.1875" height="16.125" filterUnits="userSpaceOnUse" color-interpolation-filters="sRGB">
<feFlood flood-opacity="0" result="BackgroundImageFix"/>
<feBlend mode="normal" in="SourceGraphic" in2="BackgroundImageFix" result="shape"/>
<feGaussianBlur stdDeviation="0.75" result="effect1_foregroundBlur_18_28772"/>
</filter>
<filter id="filter1_f_18_28772" x="17.375" y="6.21875" width="5.54688" height="2.875" filterUnits="userSpaceOnUse" color-interpolation-filters="sRGB">
<feFlood flood-opacity="0" result="BackgroundImageFix"/>
<feBlend mode="normal" in="SourceGraphic" in2="BackgroundImageFix" result="shape"/>
<feGaussianBlur stdDeviation="0.5" result="effect1_foregroundBlur_18_28772"/>
</filter>
<linearGradient id="paint0_linear_18_28772" x1="21.9967" y1="2" x2="21.9967" y2="30" gradientUnits="userSpaceOnUse">
<stop stop-color="#E6E6E6"/>
<stop offset="0.9944" stop-color="#CCCCCC"/>
</linearGradient>
<linearGradient id="paint1_linear_18_28772" x1="34.1875" y1="25.5" x2="13.9867" y2="25.5" gradientUnits="userSpaceOnUse">
<stop stop-color="#EBE9F4"/>
<stop offset="0.284642" stop-color="#FBF6FF"/>
<stop offset="0.442433" stop-color="#F7F0FF"/>
<stop offset="0.516688" stop-color="#E8DCFD"/>
<stop offset="0.624976" stop-color="#D6C8EE"/>
<stop offset="1" stop-color="#A6A1B0"/>
</linearGradient>
<linearGradient id="paint2_linear_18_28772" x1="21.9917" y1="13.375" x2="21.9917" y2="30" gradientUnits="userSpaceOnUse">
<stop offset="0.932331" stop-color="#D5B4FB" stop-opacity="0"/>
<stop offset="1" stop-color="#CCA5F3"/>
</linearGradient>
<linearGradient id="paint3_linear_18_28772" x1="34.1875" y1="25.5" x2="13.9867" y2="25.5" gradientUnits="userSpaceOnUse">
<stop stop-color="#EBE9F4"/>
<stop offset="0.361991" stop-color="#FBF6FF"/>
<stop offset="0.445527" stop-color="#F7F0FF"/>
<stop offset="0.563097" stop-color="#E8DCFD"/>
<stop offset="0.727076" stop-color="#D6C8EE"/>
<stop offset="1" stop-color="#A6A1B0"/>
</linearGradient>
<linearGradient id="paint4_linear_18_28772" x1="21.9917" y1="13.375" x2="21.9917" y2="30" gradientUnits="userSpaceOnUse">
<stop offset="0.932331" stop-color="#D5B4FB" stop-opacity="0"/>
<stop offset="1" stop-color="#CCA5F3"/>
</linearGradient>
<radialGradient id="paint5_radial_18_28772" cx="0" cy="0" r="1" gradientUnits="userSpaceOnUse" gradientTransform="translate(27.3125 15) rotate(131.096) scale(14.9281 12.3347)">
<stop offset="0.167558" stop-color="white"/>
<stop offset="0.441638" stop-color="#D9D6E3"/>
<stop offset="0.777612" stop-color="#B0ADBA"/>
<stop offset="0.917843" stop-color="#A5A4AA"/>
</radialGradient>
<radialGradient id="paint6_radial_18_28772" cx="0" cy="0" r="1" gradientUnits="userSpaceOnUse" gradientTransform="translate(26.5625 7.9375) rotate(90.5355) scale(1.67195 5.12665)">
<stop offset="0.25048" stop-color="white"/>
<stop offset="0.820118" stop-color="white" stop-opacity="0"/>
</radialGradient>
<radialGradient id="paint7_radial_18_28772" cx="0" cy="0" r="1" gradientUnits="userSpaceOnUse" gradientTransform="translate(30.9375 9.1875) rotate(142.106) scale(11.336 18.8462)">
<stop stop-color="#F6F8FF"/>
<stop offset="1" stop-color="#EBECF7" stop-opacity="0"/>
</radialGradient>
<linearGradient id="paint8_linear_18_28772" x1="28.8922" y1="3.75" x2="15.5625" y2="3.75" gradientUnits="userSpaceOnUse">
<stop stop-color="#DAD7E4"/>
<stop offset="0.282618" stop-color="#DAD1EB"/>
<stop offset="0.727076" stop-color="#B7ABCB"/>
<stop offset="1" stop-color="#A6A1B0"/>
</linearGradient>
<radialGradient id="paint9_radial_18_28772" cx="0" cy="0" r="1" gradientUnits="userSpaceOnUse" gradientTransform="translate(26.3594 7.6875) rotate(90) scale(1.21875 4.82986)">
<stop offset="0.333333" stop-color="#F7F6FF"/>
<stop offset="1" stop-color="#DFDAEE" stop-opacity="0"/>
</radialGradient>
<radialGradient id="paint10_radial_18_28772" cx="0" cy="0" r="1" gradientUnits="userSpaceOnUse" gradientTransform="translate(26.75 2.5) rotate(90) scale(0.625 8.1875)">
<stop stop-color="white"/>
<stop offset="1" stop-color="white" stop-opacity="0"/>
</radialGradient>
<linearGradient id="paint11_linear_18_28772" x1="32.9012" y1="24.6294" x2="15" y2="24.6294" gradientUnits="userSpaceOnUse">
<stop stop-color="#EBE9F4"/>
<stop offset="0.284642" stop-color="#FBF6FF"/>
<stop offset="0.442433" stop-color="#F7F0FF"/>
<stop offset="0.516688" stop-color="#E8DCFD"/>
<stop offset="0.624976" stop-color="#D6C8EE"/>
<stop offset="1" stop-color="#A6A1B0"/>
</linearGradient>
<linearGradient id="paint12_linear_18_28772" x1="15.9375" y1="6" x2="27.375" y2="6" gradientUnits="userSpaceOnUse">
<stop stop-color="#3974C5"/>
<stop offset="0.551913" stop-color="#3079E1"/>
<stop offset="1" stop-color="#3994F2"/>
</linearGradient>
<linearGradient id="paint13_linear_18_28772" x1="2.00754" y1="26.25" x2="17.75" y2="26.25" gradientUnits="userSpaceOnUse">
<stop stop-color="#A7A1B2"/>
<stop offset="0.400507" stop-color="#DFD1F5"/>
<stop offset="0.662537" stop-color="#FCF2FF"/>
<stop offset="0.916627" stop-color="#F0EBFD"/>
</linearGradient>
<linearGradient id="paint14_linear_18_28772" x1="9.51158" y1="20.4688" x2="9.51158" y2="30" gradientUnits="userSpaceOnUse">
<stop offset="0.895082" stop-color="#D5B4FB" stop-opacity="0"/>
<stop offset="1" stop-color="#CCA5F3"/>
</linearGradient>
<linearGradient id="paint15_linear_18_28772" x1="9.51158" y1="20.4688" x2="9.51158" y2="21.1563" gradientUnits="userSpaceOnUse">
<stop stop-color="#BEBEBF"/>
<stop offset="0.227273" stop-color="#BEBEBF" stop-opacity="0"/>
</linearGradient>
<radialGradient id="paint16_radial_18_28772" cx="0" cy="0" r="1" gradientUnits="userSpaceOnUse" gradientTransform="translate(14.625 21.2188) rotate(90) scale(0.578125 6.07031)">
<stop stop-color="white"/>
<stop offset="1" stop-color="white" stop-opacity="0"/>
</radialGradient>
<linearGradient id="paint17_linear_18_28772" x1="2.00754" y1="24.3672" x2="17.0156" y2="24.3672" gradientUnits="userSpaceOnUse">
<stop stop-color="#477CBC"/>
<stop offset="0.465913" stop-color="#3588F6"/>
<stop offset="1" stop-color="#48ADFF"/>
</linearGradient>
<linearGradient id="paint18_linear_18_28772" x1="22.1171" y1="7.40104" x2="18.9928" y2="7.40104" gradientUnits="userSpaceOnUse">
<stop stop-color="#CFC8DD"/>
<stop offset="1" stop-color="#A9A4B5"/>
</linearGradient>
</defs>
</svg>

<svg width="32" height="32" fill="none" xmlns="http://www.w3.org/2000/svg"><path d="m27.927 10.62-1.71-1.97c-.55-.63-.47-1.6.18-2.13a7.071 7.071 0 0 0 2.48-3.91.492.492 0 0 0-.48-.61h-12.8c-.32 0-.56.3-.49.61a7.071 7.071 0 0 0 2.48 3.91c.66.52.73 1.49.18 2.13l-1.71 1.97a8.446 8.446 0 0 0-2.07 5.53v12.91c0 .52.42.94.94.94H29.057c.52 0 .94-.42.94-.94V16.15c0-2.03-.73-4-2.07-5.53Z" fill="url(#a)"/><path d="m27.927 10.62-1.71-1.97c-.55-.63-.47-1.6.18-2.13a7.071 7.071 0 0 0 2.48-3.91.492.492 0 0 0-.48-.61h-12.8c-.32 0-.56.3-.49.61a7.071 7.071 0 0 0 2.48 3.91c.66.52.73 1.49.18 2.13l-1.71 1.97a8.446 8.446 0 0 0-2.07 5.53v12.91c0 .52.42.94.94.94H29.057c.52 0 .94-.42.94-.94V16.15c0-2.03-.73-4-2.07-5.53Z" fill="url(#b)"/><path d="m27.927 10.62-1.71-1.97c-.55-.63-.47-1.6.18-2.13a7.071 7.071 0 0 0 2.48-3.91.492.492 0 0 0-.48-.61h-12.8c-.32 0-.56.3-.49.61a7.071 7.071 0 0 0 2.48 3.91c.66.52.73 1.49.18 2.13l-1.71 1.97a8.446 8.446 0 0 0-2.07 5.53v12.91c0 .52.42.94.94.94H29.057c.52 0 .94-.42.94-.94V16.15c0-2.03-.73-4-2.07-5.53Z" fill="url(#c)"/><path d="m27.927 10.62-1.71-1.97a1.482 1.482 0 0 1-.361-1.088 1.48 1.48 0 0 1 .54-1.042h-8.81c.337.265.52.647.546 1.042.025.38-.096.774-.365 1.088l-1.71 1.97a8.446 8.446 0 0 0-2.07 5.53h16.01c0-2.03-.73-4-2.07-5.53Z" fill="url(#d)"/><path d="m27.927 10.62-1.71-1.97a1.482 1.482 0 0 1-.361-1.088 1.48 1.48 0 0 1 .54-1.042h-8.81c.337.265.52.647.546 1.042.025.38-.096.774-.365 1.088l-1.71 1.97a8.446 8.446 0 0 0-2.07 5.53h16.01c0-2.03-.73-4-2.07-5.53Z" fill="url(#e)"/><path d="m27.927 10.62-1.71-1.97a1.482 1.482 0 0 1-.361-1.088 1.48 1.48 0 0 1 .54-1.042h-8.81c.337.265.52.647.546 1.042.025.38-.096.774-.365 1.088l-1.71 1.97a8.446 8.446 0 0 0-2.07 5.53h16.01c0-2.03-.73-4-2.07-5.53Z" fill="url(#f)"/><path d="m27.927 10.62-1.71-1.97a1.482 1.482 0 0 1-.361-1.088 1.48 1.48 0 0 1 .54-1.042h-8.81c.337.265.52.647.546 1.042.025.38-.096.774-.365 1.088l-1.71 1.97a8.446 8.446 0 0 0-2.07 5.53h16.01c0-2.03-.73-4-2.07-5.53Z" fill="url(#g)"/><path d="m27.927 10.62-1.71-1.97a1.482 1.482 0 0 1-.361-1.088 1.48 1.48 0 0 1 .54-1.042h-8.81c.337.265.52.647.546 1.042.025.38-.096.774-.365 1.088l-1.71 1.97a8.446 8.446 0 0 0-2.07 5.53h16.01c0-2.03-.73-4-2.07-5.53Z" fill="url(#h)"/><path d="M25.856 7.562a1.48 1.48 0 0 1 .54-1.042 7.071 7.071 0 0 0 2.48-3.91.492.492 0 0 0-.48-.61h-12.8c-.32 0-.56.3-.49.61a7.071 7.071 0 0 0 2.48 3.91c.337.265.52.647.546 1.042h7.724Z" fill="url(#i)"/><path d="M25.856 7.562a1.48 1.48 0 0 1 .54-1.042 7.071 7.071 0 0 0 2.48-3.91.492.492 0 0 0-.48-.61h-12.8c-.32 0-.56.3-.49.61a7.071 7.071 0 0 0 2.48 3.91c.337.265.52.647.546 1.042h7.724Z" fill="url(#j)"/><path d="M25.856 7.562a1.48 1.48 0 0 1 .54-1.042 7.071 7.071 0 0 0 2.48-3.91.492.492 0 0 0-.48-.61h-12.8c-.32 0-.56.3-.49.61a7.071 7.071 0 0 0 2.48 3.91c.337.265.52.647.546 1.042h7.724Z" fill="url(#k)"/><g filter="url(#l)"><path d="M15.072 15.438a7.234 7.234 0 0 0-.072 1.02V27.74c0 .454.372.822.833.822H28.355c.46 0 .832-.368.832-.822V16.457c0-.342-.024-.683-.071-1.02H15.072Z" fill="url(#m)"/></g><path d="M28.397 4h-12.8c.35.75.83 1.42 1.41 2h9.98c.58-.58 1.06-1.25 1.41-2Z" fill="url(#n)"/><path d="M2.008 21.358v7.36c0 .845.18 1.282.883 1.282h13.187c.547 0 .938-.375.938-1.281v-7.36c0-.422-.25-.89-.907-.89H2.84c-.506 0-.831.36-.831.89Z" fill="url(#o)"/><path d="M2.008 21.358v7.36c0 .845.18 1.282.883 1.282h13.187c.547 0 .938-.375.938-1.281v-7.36c0-.422-.25-.89-.907-.89H2.84c-.506 0-.831.36-.831.89Z" fill="url(#p)"/><path d="M2.008 21.358v7.36c0 .845.18 1.282.883 1.282h13.187c.547 0 .938-.375.938-1.281v-7.36c0-.422-.25-.89-.907-.89H2.84c-.506 0-.831.36-.831.89Z" fill="url(#q)"/><path d="M2.008 21.358v7.36c0 .845.18 1.282.883 1.282h13.187c.547 0 .938-.375.938-1.281v-7.36c0-.422-.25-.89-.907-.89H2.84c-.506 0-.831.36-.831.89Z" fill="url(#r)"/><path fill="url(#s)" d="M2.008 22.383h15.008v1.984H2.008z"/><g filter="url(#t)"><path d="M18.814 7.219h3.108v.875h-3.108l-.439-.438.439-.437Z" fill="url(#u)"/></g><defs><linearGradient id="a" x1="21.997" y1="2" x2="21.997" y2="30" gradientUnits="userSpaceOnUse"><stop stop-color="#E6E6E6"/><stop offset=".994" stop-color="#CCC"/></linearGradient><linearGradient id="b" x1="34.188" y1="25.5" x2="13.987" y2="25.5" gradientUnits="userSpaceOnUse"><stop stop-color="#EBE9F4"/><stop offset=".285" stop-color="#FBF6FF"/><stop offset=".442" stop-color="#F7F0FF"/><stop offset=".517" stop-color="#E8DCFD"/><stop offset=".625" stop-color="#D6C8EE"/><stop offset="1" stop-color="#A6A1B0"/></linearGradient><linearGradient id="c" x1="21.992" y1="13.375" x2="21.992" y2="30" gradientUnits="userSpaceOnUse"><stop offset=".932" stop-color="#D5B4FB" stop-opacity="0"/><stop offset="1" stop-color="#CCA5F3"/></linearGradient><linearGradient id="d" x1="34.188" y1="25.5" x2="13.987" y2="25.5" gradientUnits="userSpaceOnUse"><stop stop-color="#EBE9F4"/><stop offset=".362" stop-color="#FBF6FF"/><stop offset=".446" stop-color="#F7F0FF"/><stop offset=".563" stop-color="#E8DCFD"/><stop offset=".727" stop-color="#D6C8EE"/><stop offset="1" stop-color="#A6A1B0"/></linearGradient><linearGradient id="e" x1="21.992" y1="13.375" x2="21.992" y2="30" gradientUnits="userSpaceOnUse"><stop offset=".932" stop-color="#D5B4FB" stop-opacity="0"/><stop offset="1" stop-color="#CCA5F3"/></linearGradient><linearGradient id="i" x1="28.892" y1="3.75" x2="15.563" y2="3.75" gradientUnits="userSpaceOnUse"><stop stop-color="#DAD7E4"/><stop offset=".283" stop-color="#DAD1EB"/><stop offset=".727" stop-color="#B7ABCB"/><stop offset="1" stop-color="#A6A1B0"/></linearGradient><linearGradient id="m" x1="32.901" y1="24.629" x2="15" y2="24.629" gradientUnits="userSpaceOnUse"><stop stop-color="#EBE9F4"/><stop offset=".285" stop-color="#FBF6FF"/><stop offset=".442" stop-color="#F7F0FF"/><stop offset=".517" stop-color="#E8DCFD"/><stop offset=".625" stop-color="#D6C8EE"/><stop offset="1" stop-color="#A6A1B0"/></linearGradient><linearGradient id="n" x1="15.938" y1="6" x2="27.375" y2="6" gradientUnits="userSpaceOnUse"><stop stop-color="#3974C5"/><stop offset=".552" stop-color="#3079E1"/><stop offset="1" stop-color="#3994F2"/></linearGradient><linearGradient id="o" x1="2.008" y1="26.25" x2="17.75" y2="26.25" gradientUnits="userSpaceOnUse"><stop stop-color="#A7A1B2"/><stop offset=".401" stop-color="#DFD1F5"/><stop offset=".663" stop-color="#FCF2FF"/><stop offset=".917" stop-color="#F0EBFD"/></linearGradient><linearGradient id="p" x1="9.512" y1="20.469" x2="9.512" y2="30" gradientUnits="userSpaceOnUse"><stop offset=".895" stop-color="#D5B4FB" stop-opacity="0"/><stop offset="1" stop-color="#CCA5F3"/></linearGradient><linearGradient id="q" x1="9.512" y1="20.469" x2="9.512" y2="21.156" gradientUnits="userSpaceOnUse"><stop stop-color="#BEBEBF"/><stop offset=".227" stop-color="#BEBEBF" stop-opacity="0"/></linearGradient><linearGradient id="s" x1="2.008" y1="24.367" x2="17.016" y2="24.367" gradientUnits="userSpaceOnUse"><stop stop-color="#477CBC"/><stop offset=".466" stop-color="#3588F6"/><stop offset="1" stop-color="#48ADFF"/></linearGradient><linearGradient id="u" x1="22.117" y1="7.401" x2="18.993" y2="7.401" gradientUnits="userSpaceOnUse"><stop stop-color="#CFC8DD"/><stop offset="1" stop-color="#A9A4B5"/></linearGradient><radialGradient id="f" cx="0" cy="0" r="1" gradientUnits="userSpaceOnUse" gradientTransform="rotate(131.096 10.246 13.71) scale(14.9281 12.3347)"><stop offset=".168" stop-color="#fff"/><stop offset=".442" stop-color="#D9D6E3"/><stop offset=".778" stop-color="#B0ADBA"/><stop offset=".918" stop-color="#A5A4AA"/></radialGradient><radialGradient id="g" cx="0" cy="0" r="1" gradientUnits="userSpaceOnUse" gradientTransform="rotate(90.535 9.35 17.126) scale(1.67195 5.12665)"><stop offset=".25" stop-color="#fff"/><stop offset=".82" stop-color="#fff" stop-opacity="0"/></radialGradient><radialGradient id="h" cx="0" cy="0" r="1" gradientUnits="userSpaceOnUse" gradientTransform="matrix(-8.94579 6.9626 -11.57538 -14.87245 30.938 9.188)"><stop stop-color="#F6F8FF"/><stop offset="1" stop-color="#EBECF7" stop-opacity="0"/></radialGradient><radialGradient id="j" cx="0" cy="0" r="1" gradientUnits="userSpaceOnUse" gradientTransform="matrix(0 1.21875 -4.82986 0 26.36 7.688)"><stop offset=".333" stop-color="#F7F6FF"/><stop offset="1" stop-color="#DFDAEE" stop-opacity="0"/></radialGradient><radialGradient id="k" cx="0" cy="0" r="1" gradientUnits="userSpaceOnUse" gradientTransform="matrix(0 .625 -8.1875 0 26.75 2.5)"><stop stop-color="#fff"/><stop offset="1" stop-color="#fff" stop-opacity="0"/></radialGradient><radialGradient id="r" cx="0" cy="0" r="1" gradientUnits="userSpaceOnUse" gradientTransform="matrix(0 .57813 -6.07031 0 14.625 21.219)"><stop stop-color="#fff"/><stop offset="1" stop-color="#fff" stop-opacity="0"/></radialGradient><filter id="l" x="13.5" y="13.938" width="17.188" height="16.125" filterUnits="userSpaceOnUse" color-interpolation-filters="sRGB"><feFlood flood-opacity="0" result="BackgroundImageFix"/><feBlend in="SourceGraphic" in2="BackgroundImageFix" result="shape"/><feGaussianBlur stdDeviation=".75" result="effect1_foregroundBlur_18_28772"/></filter><filter id="t" x="17.375" y="6.219" width="5.547" height="2.875" filterUnits="userSpaceOnUse" color-interpolation-filters="sRGB"><feFlood flood-opacity="0" result="BackgroundImageFix"/><feBlend in="SourceGraphic" in2="BackgroundImageFix" result="shape"/><feGaussianBlur stdDeviation=".5" result="effect1_foregroundBlur_18_28772"/></filter></defs></svg>
